X: 1072
T: Hisarbûselik Sazsemâîsi
C: Tanburî Büyük Osman Bey
O: Turkey
F: http://compmusic.upf.edu/node/140
N: hisarbuselik--sazsemaisi--aksaksemai----tanburi_buyuk_osman_bey
N: makam= hisarbuselik
N: form= sazsemaisi
N: usul= aksaksemai = 10/8
M: 10/8
L: 1/16
K: C _1/4B   
Q: 1/4=120
%%MIDI tuningsystem comma53
A4 e2e^d {f}ed=d=B {d}cBA2 ^G4  | \
w:  1. HANE  | 
A4 =B2c3^ded cde4z2  | 
w:   | 
e4 ^g2g2 fef2 g2=b2 a4  | f4 e2=b2 a^gfe {g}fee4z2  | \
w:   |   | 
e4 ^ga=bc' baba gab6  | 
w:   | 
a4 c'2c'=b {d'}c'bba {c'}baa2 ^g4  | \
w:   | 
e4 ^g2f2 e2f2 g2=b2 a4  | f4 e2=b2 a^gfe {g}fee4z2  | 
w:   |   | 
d4 g2^fg fga2 gfe4z2  | g^f{g}fe d2gf {a}gffe ede2 d2c=B  | 
w:  TESLİM  |   | 
c4 G2c3edc =Bcd6  | c4 =B2cd cBBA {B}A^GA4z2  | 
w:   |   | 
c4 =BAG4A2 B2c4d2  | d4 c2=B3AAB AGG4z2  | \
w:  2. HANE  |   | 
A4 ^G2A2 =B2A2 B2c4^d2  | 
w:   | 
e4 a2^g3efe {g}fee4z2  | e4 a2^g2 e2f2 g2e2 ^d2e2  | \
w:   |   | 
c4 d2c3BBA {c}=BAA4z2  | 
w:   | 
cdc=B cBc4de dcdc d4  | e4 f2^g3efe {=g}fee4z2  | 
w:   |   | 
d4 g2^fg fga2 gfe4z2  | g^f{g}fe d2gf {a}gffe ede2 d2c=B  | 
w:  TESLİM  |   | 
c4 G2c3edc =Bcd6  | c4 =B2cd cBBA {B}A^GA4z2  | 
w:   |   | 
a4 ga=b3ac'b aba2 b4  | =b4 a2e'd' c'bba baa4z2  | 
w:  3. HANE  |   | 
a2=b2 c'2e'2 d'c'b2 a2g2 a4  | g4 ^f2=ba gffe {g}fee4z2  | 
w:   |   | 
e4 f2e2 dcfe dc=B4A2  | =B4 efe2 d2c2 B2A2 ^G2A2  | 
w:   |   | 
^G4 F2=B2 AGFE {G}FEE4z2  | d4 g2^fg fga2 gfe4z2  | 
w:   |  TESLİM  | 
g^f{g}fe d2gf {a}gffe ede2 d2c=B  | \
w:   | 
c4 G2c3edc =Bcd6  | 
w:   | 
c4 =B2cd cBBA {B}A^GA4z2  | z24  | A4d2c2c2=B2A2^G2A6z2  | 
w:   |  |  4. HANE  | 
A4e4e3dc2d2e6z2  | d4a2g2g2f2f2e2e2d2c2=B2  | \
w:   |   | 
A2=B2c2d2c2B2A2^G2A6z2  | 
w:   | 
A4d2c2c2=B2A2^G2A6z2  | A4e4e3dc2d2e6z2  | \
w:   |   | 
d4a2g2g2f2f2e2e2d2c2=B2  | 
w:   | 
A2=B2c2d2c2B2A2^G2A6z2  | a4^g2a2g2a2=b2g2a6z2  | \
w:   |   | 
e4^g2f2f3e^d2f2e6z2  | 
w:   | 
d4a2g2g2f2f2e2e2d2c2=B2  | A2=B2c2d2c2B2A2^G2A6z2  | 
w:   |   | 
a4^g2a2g2a2=b2g2a6z2  | e4^g2f2f3e^d2f2e6z2  | \
w:   |   | 
d4a2g2g2f2f2e2e2d2c2=B2  | 
w:   | 
A2=B2c2d2c2B2A2^G2A6z2  | z20  | d4 g2^fg fga2 gfe4z2  | 
w:   |  |  TESLİM  | 
g^f{g}fe d2gf {a}gffe ede2 d2c=B  | \
w:   | 
c4 G2c3edc =Bcd6  | 
w:   | 
c4 =B2cd cBBA {B}A^GA4z2  | |


